X:1
T:Partition sans titre
C:Compositeur / Arrangeur
L:1/8
M:4/4
I:linebreak $
K:G
V:1 treble nm="Violon" snm="Vln."
V:1
"G" gfga gfga | g2 d2 e2 d2 |"D" A2 A2 AGAB | A2 d2 e2 d2 |"D" fefg fefg | f2 d2 f2 a2 | %6
"G" gfga gfga | g2 D2 G2 A2 |"G" BcBA BcBA | B2 d2 G2 A2 | BcBA B2 B2 | d2 B2 G2 A2 | %12
"G" B2 BB"C" c2 B2 |"D" A2 AA A2 AB | A2 G2 F2 A2 |"G" G2 GG G2 GG | G2 d2 e2 f2 |] %17
